X: 17346
T: High Caul Cap
R: polka
M: 2/4
K: Dmajor
|:A/B/|d>e fa|g/f/e/d/ f2|fe ed/e/|fe e/d/B|
d>e fa|g/f/e/d/ fe/f/|dB BA/B/|dB B:|
|:f/g/|a>g fe/f/|d/A/e f2|fe ed/e/|fe ef/g/|
a>g fe/f/|d/A/e fe/f/|dB BA/B/|dB B:|

